dist/svg/u1F977.svg

<?xml version="1.0" encoding="UTF-8"?><svg id="Layer_1" xmlns="http://www.w3.org/2000/svg" viewBox="0 0 40 40"><g><path d="M7.49516,15.57384h0c.69041,0,1.25094,.56053,1.25094,1.25094v12.00074h-2.50189v-12.00073c0-.69042,.56053-1.25095,1.25095-1.25095Z" transform="translate(-11.73734 8.81633) rotate(-36.5111)" style="fill:#474747;"/><path d="M29.64039,26.03754c-.45813-.27797-.69345-.80599-.55327-1.32319,.54673-2.01711,1.79099-7.12711,1.7077-11.58466-.09101-4.87437-4.64569-9.38096-10.3765-9.38096s-10.3765,4.50575-10.3765,9.38096c0,0-.26085,5.39477,1.71151,11.48044,.17524,.5407-.04975,1.11654-.53629,1.41039-3.96957,2.39743-6.64501,6.29393-6.90826,10.75103-.02332,.39483,.30755,.72535,.70307,.72535h30.80555c.39546,0,.72622-.33039,.70291-.72516-.26256-4.44655-2.92597-8.33515-6.87991-10.7342Z" style="fill:#3d3d3d;"/><path d="M15.76698,17.58778c-.83275,0-1.63852-.4445-2.06198-1.22832-.61507-1.13777-.19115-2.55816,.94662-3.17277,.23734-.12896,5.88229-3.10692,11.54188,.00823,1.13274,.62376,1.54569,2.0478,.92192,3.181s-2.32559,1.13135-3.55337,.72947c-3.14751-1.03027-6.03738-.07386-6.68428,.20069-.3703,.15716-.73534,.2817-1.11079,.2817Z" style="fill:#ffc84d;"/><g><ellipse cx="18.00179" cy="14.68344" rx=".91391" ry="1.09669"/><ellipse cx="22.82723" cy="14.68344" rx=".91391" ry="1.09669"/></g><path d="M23.15024,37.4969l8.24257-10.14155c.09854-.12124,.08077-.2989-.04045-.39747-.59583-.48446-2.20263-1.7909-2.20279-1.7907l-8.12489,10.00918c-.31426,.38714-.90496,.38752-1.21972,.00079l-8.13323-9.99299-2.20064,1.78965c-.1212,.09857-.14355,.27183-.04502,.39306,1.20402,1.48137,8.23505,10.13003,8.23505,10.13003h5.48912Z" style="fill:#9c9c9c;"/></g><rect width="40" height="40" style="fill:none;"/></svg>

<svg id="Layer_1" data-name="Layer 1" xmlns="http://www.w3.org/2000/svg" viewBox="0 0 40 40"><defs><style>.cls-1{fill:#474747;}.cls-2{fill:#3d3d3d;}.cls-3{fill:#ffc84d;}.cls-4{fill:#9c9c9c;}.cls-5{fill:none;}</style></defs><path class="cls-1" d="M7.5,15.574h0a1.251,1.251,0,0,1,1.251,1.251v12a0,0,0,0,1,0,0h-2.5a0,0,0,0,1,0,0v-12A1.251,1.251,0,0,1,7.5,15.574Z" transform="translate(-11.737 8.816) rotate(-36.511)"/><path class="cls-2" d="M29.64,26.038a1.186,1.186,0,0,1-.553-1.324A45.833,45.833,0,0,0,30.8,13.13C30.7,8.255,26.149,3.749,20.418,3.749s-10.376,4.5-10.376,9.381a35.821,35.821,0,0,0,1.711,11.48,1.206,1.206,0,0,1-.536,1.411A13.651,13.651,0,0,0,4.309,36.772a.7.7,0,0,0,.7.725H35.817a.7.7,0,0,0,.7-.725A13.647,13.647,0,0,0,29.64,26.038Z"/><path class="cls-3" d="M15.767,17.588a2.341,2.341,0,0,1-1.115-4.4c.237-.129,5.882-3.107,11.541.008a2.342,2.342,0,0,1,.922,3.181c-.623,1.133-2.325,1.131-3.553.729a10.289,10.289,0,0,0-6.684.2A2.887,2.887,0,0,1,15.767,17.588Z"/><ellipse cx="18.002" cy="14.683" rx="0.914" ry="1.097"/><ellipse cx="22.827" cy="14.683" rx="0.914" ry="1.097"/><path class="cls-4" d="M23.15,37.5l8.243-10.142a.282.282,0,0,0-.041-.4c-.595-.485-2.2-1.791-2.2-1.791L21.025,35.176a.786.786,0,0,1-1.22,0l-8.133-9.993-2.2,1.79a.278.278,0,0,0-.045.393L17.661,37.5Z"/><rect class="cls-5" width="40" height="40"/></svg>
